X:7
T:Entre du fol
T:(Basse dansse 7)
C:Tielman Susato
B:Tielman Susato: "Danserye" (1551) no. 7
R:Basse dance
Z:Transcribed by Frank Nordberg - http://www.musicaviva.com
F:http://abc.musicaviva.com/tunes/susato-tielman/susato-1551-07/susato-1551-07-4m.abc
M:4/2
L:1/4
K:Gdor
V:1
GFGAG2G2|FEFGF2F2|G2AB cBAG|A4z4|AGAB ABcd|c2B2A2G2|FGAG FEG^F|G4z4:|
V:2
D4D2E2|D4D2D2|B,2F4E2|F4z4|F4F2E2|ECDE FF,G,2|A,4D4|B,4z4:|
V:3
B,4B,2C2|A,4A,2B,2|G,2F,2G,2C2|A,4z4|C4C2C2|A,2B,2C2C2|D2CB, A,G,A,2|G,4z4:|
V:4
G,4G,2C,2|D,4D,2B,,2|_E,2D,2C,4|F,4z4|F,4F,2A,2-|A,2G,2F,2E,2|D,4D,4|G,,4z4:|
%
V:1
AGABA2A2|A4z2A2|B2GA BcdB|c4A2A2|BAGA BcdB|c4A2A2|B2AG FGAB|c4A2A2|
V:2
F4F2E2|F4z2F2|G6F2|F6F2|G6G2|E2F2F2F2|G2G,2A,2F,2|G,2F,FF2F2|
V:3
D4D2C2|D4z2D2|B,3CD4|C2A,2C2D2|B,3CD4|C2A,2C2D2|B,3CD4|E2C2C2D2|
V:4
D,4F,G,A,2|D,4z2D,2|G,6B,2|F,6D,2|G,6G,2|C,2F,2F,2D,2|G,2F,E,D,4|C,2F,2F,2D,2|
%
V:1
B3A GABG|A3G FGAF|G3F EFGE|F4D4|DCDE FGAB|c3BA2G2|FGAG ^FEG^F|G4z4|
V:2
G3FE2D2|F3ED2C2|_E2B,2C3B,|A,4B,4|G,2G2F4-|F2C2F2E2|D2C2D4|D4z4|
V:3
B,4C2B,2|A,2A,2B,2A,2|G,2G,2A,2G,2-|G,2F,2G,4|B,4A,2A,2|A,G,A,B,C3B,|A,2G,2A,4|B,4z4|
V:4
G,4C,2G,2|F,4B,,2F,2|_E,4C,4|D,4G,,4|G,3F,D,2F,2|F,6C,2|D,2_E,2D,4|G,,4z4|
%
V:1
B3A GABG|A3G FGAF|G3F EFGE|F4D4|DCDE FGAB|c3BA2G2|FGAG ^FEG^F|G8|]
V:2
G3FE2D2|F3ED2C2|_E2B,2C3B,|A,4B,4|G,2G2F4-|F2C2F2E2|D2C2D4|D8|]
V:3
B,4C2B,2|A,2A,2B,2A,2|G,2G,2A,2G,2-|G,F,F,2G,4|B,4A,2A,2|A,G,A,B,C3B,|A,2G,2A,4|G,8|]
V:4
G,4C,2G,2|F,4B,,2F,2|_E,4C,4|D,4G,,4|G,4D,2F,2|F,6C,2|D,2_E,2D,4|G,,8|]
W:
W:
W:  From Musica Viva - http://www.musicaviva.com
W:  the Internet center for free sheet music downloads.
